!!!OTL: Die versoffenen Kleider (26c), S.106
!!!id: T0149
**kern
*clefG2
*k[b-]
*F:
{8a
8g
=1
4f
4a
8g
8f
=2
4e
4b-}
=3
{8a
8g
=4
4f
4cc
8dd
8dd
=5
4cc}
4r
=6
{8cc
8cc
=7
4dd
8dd
8dd
8cc
8b-
=8
8a
8cc
8cc}
=9
{8cc
8b-
8a
=10
4g
4cc
8dd
8dd
=11
4cc}
4r
=12
{8cc
8cc
=13
4dd
8dd
8dd
8cc
8b-
=14
8a
8cc
8cc}
=15
{8cc
8b-
8a
=16
4g
4cc
8a
8g
=17
4f}
4r
==
*-
!!!minrhy: 8
!!!meters: 3/4 ]  ZZ[6
!!!cut: Die versoffenen Kleider (26c), S.106
!!!reg: Luxemburg
!!!trd: Singendes Volk, Esch-Alzette 1937 posth.
!!!rhy1: XX  X_X_XX  X_X_
!!!rhy2: XX  X_X_XX  X_0_
!!!key: T0149  08  F 3/4 ]  ZZ[6
!!!mod: HEPTATONIK IONISCH]  AMBITUS[7b
!!!kad: 455551
!!!akz: 1-7_15_63_25_63_21_
!!!fot: 'a__b__c__d__c__as'
!!!for: 'a__a__b__aw_b__aw_
!!!fok: 'Va_Va_V__V__V__\__
!! PHRAS[AUFTAKTIG]
!!!fkt: Liebeslieder
!!!bem: Rosport, fff Maria Schiltz, 8.3.1934
!! THILL, Mathias:
!! PR[45] 2K[0] 2G[13] 3K[3] 3G[3] 4A[3] 4Ü[0] 5A[0] 6K[0] 6G[0]
!! 7K[0] 7G[0] 8A[0] MEHR[0] SI[23] ABS[31] SR[13] SP[10]
!! ST[8] 2k[3] 2g[19] 3k[3] 3g[6] 4d[0] 4ü[0] 5d[0] 6k[0] 6g[0]
!! 7k[0] 7g[0] 8d[0] mehr[0] si[32] dm[-9] sr[23] sp[10]
!! 1F[13] 2F[81] 3F[6] 4F[0] LF[0] 2P[0] 3P[0] 4P[0] TRI[0] DF[3] AB[32]
!! TF[0] U3K[0] U3[0] U4[0] U4Ü[0] U5[16] U6K[0] U6[19] U7K[0] U7[3]
!! N1[28] N2K[0] N2[19] N3K[0] N3[16] N4[0] N4Ü[0] N5[0] N6K[0] N6[0]
!!!n7k: 0] N7[0] O1[0] O2K[0] O2[0] O3K[0] O3[0] HÖ[0
